tools/download-figma-icons/icons/outlined-medium/house-connection.svg

<svg width="24" height="24" viewBox="0 0 24 24" fill="none" xmlns="http://www.w3.org/2000/svg">
<path fill-rule="evenodd" clip-rule="evenodd" d="M12 22.5064C11.586 22.5064 11.25 22.1726 11.25 21.7601C11.25 21.3484 11.586 21.0139 12 21.0139C12.414 21.0139 12.75 21.3484 12.75 21.7601C12.75 22.1726 12.414 22.5064 12 22.5064ZM5.24999 16.5341V7.57614C5.24999 7.54839 5.23649 7.52364 5.23424 7.49664L11.9647 1.72914L18.7635 7.51089C18.7612 7.53339 18.75 7.55364 18.75 7.57614V16.5341H12H5.24999ZM23.25 21.0139H14.1112C13.8855 20.3809 13.386 19.8836 12.75 19.6579V18.0274H19.5C19.9147 18.0274 20.25 17.6936 20.25 17.2811V8.77538L21.2633 9.63713C21.4042 9.75638 21.5775 9.81563 21.75 9.81563C21.9615 9.81563 22.1722 9.72638 22.3207 9.55388C22.5893 9.24113 22.5518 8.77013 22.2367 8.50088L12.45 0.178125C12.1702 -0.0596246 11.7548 -0.0596246 11.4735 0.179625L1.761 8.50313C1.44675 8.77238 1.4115 9.24413 1.6815 9.55613C1.953 9.86888 2.42625 9.90113 2.739 9.63488L3.75 8.76863V17.2811C3.75 17.6936 4.08525 18.0274 4.5 18.0274H11.25V19.6579C10.614 19.8836 10.1145 20.3809 9.88875 21.0139H0.75C0.33525 21.0139 0 21.3476 0 21.7601C0 22.1734 0.33525 22.5064 0.75 22.5064H9.88875C10.1993 23.3734 11.0235 23.9996 12 23.9996C12.9765 23.9996 13.8008 23.3734 14.1112 22.5064H23.25C23.6647 22.5064 24 22.1734 24 21.7601C24 21.3476 23.6647 21.0139 23.25 21.0139Z" fill="black"/>
</svg>

<svg width="24" height="24" viewBox="0 0 24 24" fill="none" xmlns="http://www.w3.org/2000/svg"><path fill-rule="evenodd" clip-rule="evenodd" d="M12 22.506a.748.748 0 0 1-.75-.746c0-.412.336-.746.75-.746s.75.334.75.746a.748.748 0 0 1-.75.746Zm-6.75-5.972V7.576c0-.028-.014-.052-.016-.08l6.73-5.767 6.8 5.782c-.003.022-.014.043-.014.065v8.958H5.25Zm18 4.48h-9.139a2.237 2.237 0 0 0-1.361-1.356v-1.63h6.75c.415 0 .75-.334.75-.747V8.775l1.013.862a.752.752 0 0 0 1.058-.083.745.745 0 0 0-.084-1.053L12.45.178a.756.756 0 0 0-.976.002L1.76 8.503a.744.744 0 0 0-.08 1.053.755.755 0 0 0 1.058.079l1.011-.866v8.512c0 .413.335.746.75.746h6.75v1.63a2.237 2.237 0 0 0-1.361 1.357H.75a.747.747 0 1 0 0 1.492h9.139A2.245 2.245 0 0 0 12 24c.976 0 1.8-.627 2.111-1.494h9.139a.747.747 0 1 0 0-1.492Z" fill="currentColor"/></svg>
